X:51
T:Russian Dance
O:No 51 Wm Clarke MS  Feltwell, Norfolk
N:Last bar -too many beats
I:abc2nwc
M:2/4
L:1/16
K:D
Ad|f2Ad f2df|g2{a}f2{g}e2 Ac|e2Ac e2ag|f2{g}e2{f}d2:|
|:ag|f2fe d2d'c'|b2b2 bagf|efed c2ac|"^*"d2d2d2:|

